SVG_Azure_Grouped/Application/Function App API Management.svg

<?xml version="1.0" encoding="UTF-8" standalone="no"?>
<!-- Generated by Microsoft Visio, SVG Export Function App API Management.svg Page-1 -->

<svg
   xmlns:dc="http://purl.org/dc/elements/1.1/"
   xmlns:cc="http://creativecommons.org/ns#"
   xmlns:rdf="http://www.w3.org/1999/02/22-rdf-syntax-ns#"
   xmlns:svg="http://www.w3.org/2000/svg"
   xmlns="http://www.w3.org/2000/svg"
   xmlns:sodipodi="http://sodipodi.sourceforge.net/DTD/sodipodi-0.dtd"
   xmlns:inkscape="http://www.inkscape.org/namespaces/inkscape"
   width="0.7873624in"
   height="0.70889187in"
   viewBox="0 0 56.690001 51.040059"
   xml:space="preserve"
   class="st3"
   version="1.1"
   id="svg43"
   sodipodi:docname="Function App API Management.svg"
   style="font-size:12px;overflow:visible;color-interpolation-filters:sRGB;fill:none;fill-rule:evenodd;stroke-linecap:square;stroke-miterlimit:3"
   inkscape:version="0.92.5 (2060ec1f9f, 2020-04-08)"><metadata
   id="metadata47"><rdf:RDF><cc:Work
       rdf:about=""><dc:format>image/svg+xml</dc:format><dc:type
         rdf:resource="http://purl.org/dc/dcmitype/StillImage" /></cc:Work></rdf:RDF></metadata><sodipodi:namedview
   pagecolor="#ffffff"
   bordercolor="#666666"
   borderopacity="1"
   objecttolerance="10"
   gridtolerance="10"
   guidetolerance="10"
   inkscape:pageopacity="0"
   inkscape:pageshadow="2"
   inkscape:window-width="640"
   inkscape:window-height="480"
   id="namedview45"
   showgrid="false"
   inkscape:zoom="1.4868532"
   inkscape:cx="37.795396"
   inkscape:cy="34.02511"
   inkscape:window-x="0"
   inkscape:window-y="0"
   inkscape:window-maximized="0"
   inkscape:current-layer="svg43" />
	<style
   type="text/css"
   id="style2">
	<![CDATA[
		.st1 {fill:url(#grad0-6);stroke:none;stroke-linecap:butt;stroke-width:34}
		.st2 {fill:url(#grad0-10);stroke:none;stroke-linecap:butt;stroke-width:34}
		.st3 {fill:none;fill-rule:evenodd;font-size:12px;overflow:visible;stroke-linecap:square;stroke-miterlimit:3}
	]]>
	</style>

	<defs
   id="Patterns_And_Gradients">
		<linearGradient
   id="grad0-6"
   x1="0"
   y1="71.682204"
   x2="53.790939"
   y2="71.682204"
   gradientTransform="scale(1.053895,0.94886115)"
   gradientUnits="userSpaceOnUse">
			<stop
   offset="0"
   stop-color="#198ab3"
   stop-opacity="1"
   id="stop4" />
			<stop
   offset="0.09"
   stop-color="#1f9dc4"
   stop-opacity="1"
   id="stop6" />
			<stop
   offset="0.24"
   stop-color="#28b5d9"
   stop-opacity="1"
   id="stop8" />
			<stop
   offset="0.4"
   stop-color="#2dc6e9"
   stop-opacity="1"
   id="stop10" />
			<stop
   offset="0.57"
   stop-color="#31d1f2"
   stop-opacity="1"
   id="stop12" />
			<stop
   offset="0.78"
   stop-color="#32d4f5"
   stop-opacity="1"
   id="stop14" />
		</linearGradient>
		<linearGradient
   id="grad0-10"
   x1="0"
   y1="110.09417"
   x2="10.284359"
   y2="110.09417"
   gradientTransform="scale(1.0112444,0.98888065)"
   gradientUnits="userSpaceOnUse">
			<stop
   offset="0"
   stop-color="#c69aeb"
   stop-opacity="1"
   id="stop17" />
			<stop
   offset="1"
   stop-color="#6f4bb2"
   stop-opacity="1"
   id="stop19" />
		</linearGradient>
	</defs>
	<g
   id="g41"
   transform="translate(-34,-34.000246)">
		<title
   id="title23">Page-1</title>
		<g
   id="group13956-1"
   transform="translate(34,-34.0163)">
			<title
   id="title25">Function App API Management.13956</title>
			<g
   id="group13957-2">
				<title
   id="title27">Sheet.13957</title>
				<g
   id="shape13958-3">
					<title
   id="title29">Sheet.13958</title>
					<path
   d="M 45.62,83.38 A 16.1742,15.8124 -180 0 0 29.11,68.02 16.6744,16.3015 -180 0 0 13.27,78.75 15.3738,15.03 -180 0 0 0,93.52 a 15.5739,15.2256 -180 0 0 15.97,14.67 10.0046,9.78089 -180 0 0 1.4,0 h 4.01 a 4.90227,4.79263 0 0 1 -0.37,-1.83 5.03566,4.92305 0 0 1 0.67,-2.38 H 15.97 A 11.3719,11.1176 0 0 1 4.24,93.52 11.1051,10.8568 0 0 1 13.94,82.85 l 2.53,-0.39 0.84,-2.38 a 12.4391,12.1609 0 0 1 11.8,-7.92 12.0056,11.7371 0 0 1 12.28,11.25 v 3.58 l 3.63,0.49 a 8.63733,8.44416 0 0 1 7.54,8.12 8.77073,8.57458 0 0 1 -8.74,8.28 h -4.1 a 13.0727,12.7804 -180 0 0 -12.91,-10.36 2.13432,2.08659 -180 1 0 0,4.14 8.83742,8.63978 0 0 1 0,17.24 2.13432,2.08659 -180 1 0 0,4.14 13.0727,12.7804 -180 0 0 12.91,-10.89 h 3.5 a 2.13432,2.08659 -180 0 0 0.67,0 A 13.0394,12.7478 -180 0 0 56.69,95.6 12.8726,12.5847 -180 0 0 45.62,83.38 Z"
   class="st1"
   id="path31"
   inkscape:connector-curvature="0"
   style="fill:url(#grad0-6);stroke:none;stroke-width:34;stroke-linecap:butt" />
				</g>
				<g
   id="shape13959-7"
   transform="translate(21.0097,-7.6943)">
					<title
   id="title34">Sheet.13959</title>
					<path
   d="m 0,114.02 a 5.13583,5.02097 -180 0 0 5.14,5.02 h 0.13 a 5.13583,5.02097 -180 0 0 5.13,-5.02 v -0.13 A 5.13583,5.02097 -180 0 0 5.27,108.87 H 5.14 A 5.13583,5.02097 -180 0 0 0,113.89 Z"
   class="st2"
   id="path36"
   inkscape:connector-curvature="0"
   style="fill:url(#grad0-10);stroke:none;stroke-width:34;stroke-linecap:butt" />
				</g>
			</g>
		</g>
	</g>
</svg>

<?xml version="1.0" encoding="UTF-8" standalone="no"?>
<!DOCTYPE svg PUBLIC "-//W3C//DTD SVG 1.1//EN" "http://www.w3.org/Graphics/SVG/1.1/DTD/svg11.dtd">
<!-- Generated by Microsoft Visio, SVG Export Function App API Management.svg Page-1 -->
<svg xmlns="http://www.w3.org/2000/svg" xmlns:xlink="http://www.w3.org/1999/xlink" xmlns:ev="http://www.w3.org/2001/xml-events"
		width="1.73185in" height="1.65338in" viewBox="0 0 124.693 119.043" xml:space="preserve" color-interpolation-filters="sRGB"
		class="st3">
	<style type="text/css">
	<![CDATA[
		.st1 {fill:url(#grad0-6);stroke:none;stroke-linecap:butt;stroke-width:34}
		.st2 {fill:url(#grad0-10);stroke:none;stroke-linecap:butt;stroke-width:34}
		.st3 {fill:none;fill-rule:evenodd;font-size:12px;overflow:visible;stroke-linecap:square;stroke-miterlimit:3}
	]]>
	</style>

	<defs id="Patterns_And_Gradients">
		<linearGradient id="grad0-6" x1="0" y1="0" x2="1" y2="0" gradientTransform="rotate(-90 0.5 0.5)">
			<stop offset="0" stop-color="#198ab3" stop-opacity="1"/>
			<stop offset="0.09" stop-color="#1f9dc4" stop-opacity="1"/>
			<stop offset="0.24" stop-color="#28b5d9" stop-opacity="1"/>
			<stop offset="0.4" stop-color="#2dc6e9" stop-opacity="1"/>
			<stop offset="0.57" stop-color="#31d1f2" stop-opacity="1"/>
			<stop offset="0.78" stop-color="#32d4f5" stop-opacity="1"/>
		</linearGradient>
		<linearGradient id="grad0-10" x1="0" y1="0" x2="1" y2="0" gradientTransform="rotate(90 0.5 0.5)">
			<stop offset="0" stop-color="#c69aeb" stop-opacity="1"/>
			<stop offset="1" stop-color="#6f4bb2" stop-opacity="1"/>
		</linearGradient>
	</defs>
	<g>
		<title>Page-1</title>
		<g id="group13609-1" transform="translate(34,-34.0163)">
			<title>Function App API Management.13609</title>
			<g id="group13610-2">
				<title>Sheet.13610</title>
				<g id="shape13611-3">
					<title>Sheet.13611</title>
					<path d="M45.62 83.38 A16.1742 15.8124 -180 0 0 29.11 68.02 A16.6744 16.3015 -180 0 0 13.27 78.75 A15.3738 15.03
								 -180 0 0 0 93.52 A15.5739 15.2256 -180 0 0 15.97 108.19 A10.0046 9.78089 -180 0 0 17.37 108.19 L21.38
								 108.19 A4.90227 4.79263 0 0 1 21.01 106.36 A5.03566 4.92305 0 0 1 21.68 103.98 L15.97 103.98 A11.3719
								 11.1176 0 0 1 4.24 93.52 A11.1051 10.8568 0 0 1 13.94 82.85 L16.47 82.46 L17.31 80.08 A12.4391 12.1609
								 0 0 1 29.11 72.16 A12.0056 11.7371 0 0 1 41.39 83.41 L41.39 86.99 L45.02 87.48 A8.63733 8.44416
								 0 0 1 52.56 95.6 A8.77073 8.57458 0 0 1 43.82 103.88 L39.72 103.88 A13.0727 12.7804 -180 0 0 26.81
								 93.52 A2.13432 2.08659 -180 1 0 26.81 97.66 A8.83742 8.63978 0 0 1 26.81 114.9 A2.13432 2.08659
								 -180 1 0 26.81 119.04 A13.0727 12.7804 -180 0 0 39.72 108.15 L43.22 108.15 A2.13432 2.08659 -180
								 0 0 43.89 108.15 A13.0394 12.7478 -180 0 0 56.69 95.6 A12.8726 12.5847 -180 0 0 45.62 83.38 Z"
							class="st1"/>
				</g>
				<g id="shape13612-7" transform="translate(21.0097,-7.6943)">
					<title>Sheet.13612</title>
					<path d="M0 114.02 A5.13583 5.02097 -180 0 0 5.14 119.04 L5.27 119.04 A5.13583 5.02097 -180 0 0 10.4 114.02 L10.4
								 113.89 A5.13583 5.02097 -180 0 0 5.27 108.87 L5.14 108.87 A5.13583 5.02097 -180 0 0 0 113.89 L0
								 114.02 Z" class="st2"/>
				</g>
			</g>
		</g>
	</g>
</svg>
